icons/Business/mail-lock-fill.svg

<svg viewBox="0 0 24 24" xmlns="http://www.w3.org/2000/svg"><path d="M22 11.9996C21.1643 11.3719 20.1256 11 19 11C16.581 11 14.5633 12.7178 14.1 15H13V21H3C2.44772 21 2 20.5523 2 20V4C2 3.44772 2.44772 3 3 3H21C21.5523 3 22 3.44772 22 4V11.9996ZM12.0606 11.6829L5.64722 6.2377L4.35278 7.7623L12.0731 14.3171L19.6544 7.75616L18.3456 6.24384L12.0606 11.6829ZM22 17H23V22H15V17H16V16C16 14.3431 17.3431 13 19 13C20.6569 13 22 14.3431 22 16V17ZM20 17V16C20 15.4477 19.5523 15 19 15C18.4477 15 18 15.4477 18 16V17H20Z"/></svg>

<svg xmlns="http://www.w3.org/2000/svg" viewBox="0 0 24 24">
    <g>
        <path fill="none" d="M0 0h24v24H0z"/>
        <path d="M22 12a5.002 5.002 0 0 0-7.9 3H13v6H3a1 1 0 0 1-1-1V4a1 1 0 0 1 1-1h18a1 1 0 0 1 1 1v8zm-9.94-.317L5.648 6.238 4.353 7.762l7.72 6.555 7.581-6.56-1.308-1.513-6.285 5.439zM22 17h1v5h-8v-5h1v-1a3 3 0 0 1 6 0v1zm-2 0v-1a1 1 0 0 0-2 0v1h2z"/>
    </g>
</svg>
